dist/img/phone.svg

<svg width="46" height="47" viewBox="0 0 46 47" fill="none" xmlns="http://www.w3.org/2000/svg">
<path d="M12.9125 21.1884C15.6125 26.5947 19.9625 31.0077 25.2687 33.7777L29.3937 29.5749C29.9 29.0591 30.65 28.8872 31.3063 29.1164C33.4062 29.8233 35.675 30.2053 38 30.2053C39.0312 30.2053 39.875 31.065 39.875 32.1157V38.7829C39.875 39.8336 39.0312 40.6933 38 40.6933C20.3937 40.6933 6.125 26.1553 6.125 8.2169C6.125 7.16619 6.96875 6.30652 8 6.30652H14.5625C15.5938 6.30652 16.4375 7.16619 16.4375 8.2169C16.4375 10.6049 16.8125 12.8973 17.5062 15.0369C17.7125 15.7056 17.5625 16.4506 17.0375 16.9855L12.9125 21.1884Z" fill="white"/>
</svg>

<svg width="46" height="47" fill="none" xmlns="http://www.w3.org/2000/svg"><path d="M12.912 21.188c2.7 5.407 7.05 9.82 12.357 12.59l4.125-4.203a1.84 1.84 0 011.912-.459c2.1.707 4.369 1.09 6.694 1.09 1.031 0 1.875.859 1.875 1.91v6.667c0 1.05-.844 1.91-1.875 1.91-17.606 0-31.875-14.538-31.875-32.476 0-1.05.844-1.91 1.875-1.91h6.563c1.03 0 1.874.86 1.874 1.91 0 2.388.375 4.68 1.07 6.82a1.943 1.943 0 01-.47 1.948l-4.124 4.203z" fill="#fff"/></svg>
